img/icons/cart.svg

<svg width="15" height="15" fill="none" xmlns="http://www.w3.org/2000/svg"><path d="M4.5 15c.82843 0 1.5-.6716 1.5-1.5S5.32843 12 4.5 12 3 12.6716 3 13.5 3.67157 15 4.5 15zM12.5 15c.8284 0 1.5-.6716 1.5-1.5s-.6716-1.5-1.5-1.5-1.5.6716-1.5 1.5.6716 1.5 1.5 1.5zM15 2H4.07l-.422-2H0v2h2.031l1.985 9H15V9H9.441L15 6.951V2z" fill="#A6A6A6"/></svg>

<svg width="15" height="15" viewBox="0 0 15 15" fill="none" xmlns="http://www.w3.org/2000/svg">
<path d="M4.5 15C5.32843 15 6 14.3284 6 13.5C6 12.6716 5.32843 12 4.5 12C3.67157 12 3 12.6716 3 13.5C3 14.3284 3.67157 15 4.5 15Z" fill="#A6A6A6"/>
<path d="M12.5 15C13.3284 15 14 14.3284 14 13.5C14 12.6716 13.3284 12 12.5 12C11.6716 12 11 12.6716 11 13.5C11 14.3284 11.6716 15 12.5 15Z" fill="#A6A6A6"/>
<path d="M15 2H4.07L3.648 0H0V2H2.031L4.016 11H15V9H9.441L15 6.951V2Z" fill="#A6A6A6"/>
</svg>
